dist/img/quotes.svg

<svg width="188" height="175" viewBox="0 0 188 175" fill="none" xmlns="http://www.w3.org/2000/svg">
<path d="M53.2168 28.4594C55.0421 26.5762 56.3464 26.2267 57.1297 27.4109C58.2317 28.0452 57.8119 29.0871 55.8703 30.5368C43.0631 41.8689 33.7639 54.1199 27.973 67.2898C22.5006 79.9097 21.0424 90.9892 23.5984 100.528C24.6441 104.431 26.921 106.841 30.4291 107.76C34.2559 108.129 39.8217 108.032 47.1267 107.469C58.4608 106.291 67.6941 106.837 74.8266 109.109C81.9591 111.38 86.9196 117.719 89.708 128.125C91.7992 135.93 89.4266 144.466 82.59 153.734C76.072 162.451 66.2913 168.558 53.248 172.052C39.77 175.664 28.7395 175.366 20.1565 171.16C11.4574 166.52 5.82977 159.43 3.27376 149.891C-2.1868 129.512 0.208559 108.887 10.4598 88.0156C21.0297 66.5943 35.282 46.7422 53.2168 28.4594ZM150.389 2.42209C152.215 0.538824 153.736 0.131082 154.954 1.19887C156.056 1.83308 155.636 2.87502 153.695 4.3247C140.771 15.2232 131.414 27.2574 125.623 40.4274C120.267 53.4808 118.867 64.7771 121.423 74.3163C122.469 78.2186 124.746 80.6293 128.254 81.5482C132.08 81.917 137.646 81.8198 144.951 81.2566C156.285 80.0786 165.301 80.6835 171.999 83.0714C179.015 84.9093 183.976 91.2481 186.88 102.088C188.972 109.893 186.599 118.429 179.762 127.697C173.244 136.414 163.464 142.52 150.42 146.015C136.942 149.627 125.912 149.329 117.329 145.123C108.63 140.483 103.002 133.393 100.446 123.854C94.9856 103.475 97.381 82.8496 107.632 61.9783C118.202 40.5569 132.454 20.7049 150.389 2.42209Z" fill="#FFEBEB"/>
</svg>

<svg xmlns="http://www.w3.org/2000/svg" fill="none" viewBox="0 0 188 175"><path fill="#FFEBEB" d="M53.217 28.46c1.825-1.884 3.13-2.233 3.913-1.05 1.102.635.682 1.677-1.26 3.127C43.063 41.869 33.764 54.12 27.973 67.29c-5.472 12.62-6.93 23.7-4.375 33.238 1.046 3.903 3.323 6.313 6.831 7.232 3.827.369 9.393.272 16.698-.291 11.334-1.178 20.567-.632 27.7 1.64 7.132 2.271 12.093 8.61 14.881 19.016 2.091 7.805-.281 16.341-7.118 25.609-6.518 8.717-16.299 14.824-29.342 18.318-13.478 3.612-24.508 3.314-33.091-.892-8.7-4.64-14.327-11.73-16.883-21.269-5.46-20.379-3.065-41.004 7.186-61.875 10.57-21.422 24.822-41.274 42.757-59.557zm97.172-26.038c1.826-1.883 3.347-2.29 4.565-1.223 1.102.634.682 1.676-1.259 3.126-12.924 10.898-22.281 22.932-28.072 36.102-5.356 13.054-6.756 24.35-4.2 33.89 1.046 3.902 3.323 6.312 6.831 7.231 3.826.369 9.392.272 16.697-.291 11.334-1.178 20.35-.574 27.048 1.814 7.016 1.838 11.977 8.177 14.881 19.017 2.092 7.805-.281 16.341-7.118 25.609-6.518 8.717-16.298 14.823-29.342 18.318-13.478 3.612-24.508 3.314-33.091-.892-8.699-4.64-14.327-11.73-16.883-21.269-5.46-20.379-3.065-41.004 7.186-61.876 10.57-21.421 24.822-41.273 42.757-59.556z"/></svg>
